!!!OTL: GLOCKE DU KLINGST FROEHLICH
!!!ARE: Europa, Mitteleuropa, Deutschland
!!!SCT: B0660
!!!YEM: Copyright 1995, estate of Helmut Schaffrath.
**kern
*ICvox
*Ivox
*M2/4
*k[f#c#g#d#]
*E:
=1
{8e
8e
8f#
8f#
=2
8.g#
16a
4b}
=3
{8cc#
8b
8a
8g#
=4
4f#
4g#}
=5
{8a
8g#
8a
8b
=6
4g#
4r}
=7
{8g#
8g#
8a
8a
=8
8.b
16ee
4ee}
=9
{8ff#
8ee
8dd#
8cc#
=10
4b
4a}
=11
{8g#
8b
8a
8f#
=12
4e
4r}
==
!!!AGN: Moral - Lied
!!!ONB: ESAC (Essen Associative Code) Database: BOEHME
!!!AMT: simple duple
!!!AIN: vox
!!!EED: Helmut Schaffrath
!!!EEV: 1.0
*-
